svg/calendar_multiple.svg

<svg xmlns="http://www.w3.org/2000/svg" viewBox="0 0 24 24"><path d="M21 17V8H7v9zm0-14a2 2 0 0 1 2 2v12a2 2 0 0 1-2 2H7a2 2 0 0 1-2-2V5a2 2 0 0 1 2-2h1V1h2v2h8V1h2v2zM3 21h14v2H3a2 2 0 0 1-2-2V9h2zm16-6h-4v-4h4z"/></svg>

<?xml version="1.0" encoding="UTF-8"?><!DOCTYPE svg PUBLIC "-//W3C//DTD SVG 1.1//EN" "http://www.w3.org/Graphics/SVG/1.1/DTD/svg11.dtd"><svg xmlns="http://www.w3.org/2000/svg" xmlns:xlink="http://www.w3.org/1999/xlink" version="1.1" id="mdi-calendar-multiple" width="24" height="24" viewBox="0 0 24 24"><path d="M21,17V8H7V17H21M21,3A2,2 0 0,1 23,5V17A2,2 0 0,1 21,19H7C5.89,19 5,18.1 5,17V5A2,2 0 0,1 7,3H8V1H10V3H18V1H20V3H21M3,21H17V23H3C1.89,23 1,22.1 1,21V9H3V21M19,15H15V11H19V15Z" /></svg>
